flaticon/transportation/caravan.svg

<svg xmlns="http://www.w3.org/2000/svg" width="32" height="32" viewBox="0 0 24 24">
    <path d="M 23.496094 16.925781 L 20.421875 16.925781 L 20.421875 9.597656 C 20.421875 9.464844 20.367188 9.335938 20.273438 9.242188 L 13.183594 2.210938 C 13.089844 2.121094 12.960938 2.066406 12.832031 2.066406 L 3.582031 2.066406 C 0.976562 2.066406 0.101562 4.140625 0 5.28125 L 0 14.835938 C 0 16.992188 1.941406 17.796875 2.964844 17.921875 C 2.984375 17.925781 3.007812 17.925781 3.027344 17.925781 L 6.867188 17.925781 C 6.851562 18.054688 6.84375 18.1875 6.84375 18.320312 C 6.84375 20.3125 8.464844 21.933594 10.457031 21.933594 C 12.449219 21.933594 14.070312 20.3125 14.070312 18.320312 C 14.070312 18.1875 14.0625 18.054688 14.046875 17.925781 L 23.496094 17.925781 C 24.167969 17.925781 24.167969 16.925781 23.496094 16.925781 Z M 10.457031 20.933594 C 9.015625 20.933594 7.84375 19.761719 7.84375 18.320312 C 7.84375 16.878906 9.015625 15.707031 10.457031 15.707031 C 11.898438 15.707031 13.070312 16.878906 13.070312 18.320312 C 13.070312 19.761719 11.898438 20.933594 10.457031 20.933594 Z M 19.421875 16.925781 L 13.789062 16.925781 C 13.242188 15.625 11.953125 14.707031 10.457031 14.707031 C 8.957031 14.707031 7.671875 15.625 7.125 16.925781 L 3.0625 16.925781 C 2.804688 16.886719 1 16.546875 1 14.835938 L 0.996094 5.324219 C 1.007812 5.234375 1.230469 3.066406 3.582031 3.066406 L 12.625 3.066406 L 19.421875 9.804688 Z M 19.421875 16.925781"/>
    <path d="M6.753906 4.65625L3.410156 4.65625C3.132812 4.65625 2.910156 4.878906 2.910156 5.15625L2.910156 10.257812C2.910156 10.535156 3.132812 10.757812 3.410156 10.757812L6.753906 10.757812C7.03125 10.757812 7.253906 10.535156 7.253906 10.257812L7.253906 5.15625C7.253906 4.878906 7.03125 4.65625 6.753906 4.65625zM6.253906 9.757812L3.910156 9.757812 3.910156 5.65625 6.253906 5.65625zM11.28125 4.65625L9.40625 4.65625C9.128906 4.65625 8.90625 4.878906 8.90625 5.15625L8.90625 10.257812C8.90625 10.535156 9.128906 10.757812 9.40625 10.757812L16.191406 10.757812C16.191406 10.757812 16.195312 10.761719 16.199219 10.757812 16.609375 10.757812 16.929688 10.25 16.496094 9.855469L11.640625 4.808594C11.546875 4.710938 11.414062 4.65625 11.28125 4.65625zM9.90625 9.757812L9.90625 5.65625 11.066406 5.65625 15.015625 9.757812zM9.90625 9.757812"/>
</svg>

<svg xmlns="http://www.w3.org/2000/svg" width="32" height="32" viewBox="0 0 24 24">
    <path d="M23.496 16.926h-3.074V9.598a.506.506 0 0 0-.149-.356l-7.09-7.031a.517.517 0 0 0-.351-.145h-9.25C.977 2.066.102 4.141 0 5.281v9.555c0 2.156 1.941 2.96 2.965 3.086.02.004.043.004.062.004h3.84a3.618 3.618 0 0 0 3.59 4.008 3.618 3.618 0 0 0 3.59-4.008h9.45c.671 0 .671-1 0-1zm-13.039 4.008a2.616 2.616 0 0 1-2.613-2.614 2.616 2.616 0 0 1 2.613-2.613 2.616 2.616 0 0 1 2.613 2.613 2.616 2.616 0 0 1-2.613 2.614zm8.965-4.008h-5.633a3.622 3.622 0 0 0-3.332-2.219c-1.5 0-2.785.918-3.332 2.219H3.062c-.257-.04-2.062-.38-2.062-2.09L.996 5.324c.012-.09.234-2.258 2.586-2.258h9.043l6.797 6.739zm0 0"/>
    <path d="M6.754 4.656H3.41c-.277 0-.5.223-.5.5v5.102c0 .277.223.5.5.5h3.344c.277 0 .5-.223.5-.5V5.156c0-.277-.223-.5-.5-.5zm-.5 5.102H3.91V5.656h2.344zm0 0M11.281 4.656H9.406c-.277 0-.5.223-.5.5v5.102c0 .277.223.5.5.5h6.785s.004.004.008 0c.41 0 .73-.508.297-.903L11.641 4.81a.503.503 0 0 0-.36-.153zM9.906 9.758V5.656h1.16l3.95 4.102zm0 0"/>
</svg>
